-----BEGIN PGP PUBLIC KEY BLOCK-----
Comment: Hostname:
Version: Hockeypuck 2.2

xsBNBFSf2CoBCADJOuDavJeI0IhBPnIYol/ZfE2bXvmRJMGPasU1H6CJagTkc/Iq
SuUpiix7HcYgyGY7qHO7B1Wpnh5plc03dFW2ysTnOk8NzSqWF/gbWIYbRg8GUATg
fGy7NoIio/hbBlWkM0rPQq7AIK79m0m2U4ZAuQPamAC4y8H9j/SyTFI1gQNeExZ+
L8DE3QjSx4GAVgb4cfdQQPwGmoOIgKSudZN6oPiOj+MM3yh1vv49C45ChSWNWGjB
683zFbjuS0A483MFPI8iQGC8JecmQGvpzcOoSLkyTjT7vleFYGkfj8N0FB5Bq2L5
TT2w9lQKEjvWTe//G4tXgnGXy8PwqRZmj2CfABEBAAHNJUpvYWNoaW0gTWV0eiA8
am9hY2hpbS5tZXR6QGdtYWlsLmNvbT7CwHkEEwECACMFAlSf2CoCGwMHCwkIBwMC
AQYVCAIJCgsEFgIDAQIeAQIXgAAKCRDZYl5detAXfkBgCAC4W/adqlNYSkK5VDoU
FDMMRDffVVe0WdPlW7PDJXR0R0IParwHD+FJY3jtNA2upqKTCXm7JbQRN/n4Qrfb
PJHr0EoBF7iG6kT4RKocImciuMJaj4fTolGNdc0iRKl5tMIb64RiE47XhN7v6/oP
UaqrbnF5EW9EZ2AqOSTEcLeTgKLErMlv2dLjFXg8jXGNxTkmi6BELyaczgWBgD9I
3tfMvXLswI5q9RtpJUc8oAfV81ibfFm6UeItQxM6SM0WLKILlXIQqqiQ4oCbAm4R
PJI4RwoJYAhcJOmUXrAUC5obhjkf9Qo0RJzVMFLuQXDiRV5W5dBL/hs9M0FVWDxv
siZNwsBzBBABCAAdFiEE9n59boAPJA6D68hn/2rJpkZN8JwFAlr5kFEACgkQ/2rJ
pkZN8Jy8pAf9ElaNH4Rd0ethI+0HVSx+eez2A8Sx2G3zyZ+nCyIjQwKuR/yiZY+Y
CoIKTO8vEmUiJUHbTmb6FcHyUNw8fZPqCJvcspmqwlooOUBeGpwfdE929MyHMYVa
7xi9+WtegTVzCS7vtAxAysuCifs975WB7wFb8WPcEiK54LTZhm5oLjzL8yXm5WWw
uf5Bri32kTa8z02NZvF+0/aIUWq3w+mUoMhL2Nsc1pkaV4jpIcQSVrSZin6md69G
okCTY0uLUI8ssawOkjt1t+5kIR04j1AB+wRT8LYSdzNJrdZbtVN0Vck6eJWwAb7f
sbXF6JVLyD97YHTVITPDp3+uLMpGVZMbRcLAcwQQAQgAHRYhBB/mNI7eqCWiKXDl
xI3TBA8SPMP0BQJbcLU0AAoJEI3TBA8SPMP0JPwH+gNzqylF3h8So1HEEHp5imJ7
dfyupNwViqvHp7B5wcj4Bi4Jw+vmH+5tmSOhh83gAjlLuxQODyO/cSE1CUgM6JBD
mnb+4qRm3HX54EbM0gxyP0JEemLX0hWzMnBLSF/eP0VIT28swI/5iRTKc90FQrAz
kdVQmKSmU2b8FGs04UQxSBPqqJ7gdIHvIM0y33XhJjasF0oftf1anYmWIe7oHtIo
PLF2fmqzXPqrKJg1p1MfnGNzBqTOQ+h3ggfEX9Lu5+JlciShV5JdmJZWJNR9zmSY
XgYXcdkLfKQ10TVljfisoXcC+KGJ3phKzcPumUDVUUHqfPGb5ohUvnx49xzM+tTC
wHMEEAEIAB0WIQRswFHTwdmkr54mDFjT45SsdE4uuwUCW3haBgAKCRDT45SsdE4u
uzkCCAC6/5q0glmxGUxmdrkMQCVh770NDfQNk6EI3MXWtBLQ+Q0ww/t7JDyhCeJo
MyFseKSspfpBkOlvxPQyUAy8MS16WNWBMNeAC9XAx2c6rOm2yup67M1XyVg9verK
j/dpOXaJuS//Mf5cRnDi6JKryHfg/lqiGu/RuMouAlm7y++aMxB0NKlDKQDvnkOO
zd8pFewQAT0fe2Fp2YSJzKz4sdwILOdNMAD23tkCKoL4jEQ06acH3OdvK3/hFDJ3
luTur89A1hJpCayNVvGxyiqLNdq4nE/IuyzusNLVHfT8tgryzQIEWmC44BxuKj9M
LNm2JGV1b5hKXLFN+/ZMjZdaBuktwsBzBBABCAAdFiEEFYxhKaE9/F3EF/xhg8DU
5Q6JyVoFAl0f87cACgkQg8DU5Q6JyVpBIAf+Ne4JihM67YJ+YBn2avc0eg4sviLh
8JBCRCcmrKOz4aDiN2X6GpUIsWfv6zUfsTlKWltf+Ywp7H1WtVgYpOjG8t+J8YFK
zXuKY14MgA3dgcgUX7qD3N0LiGaCyaTCNQKveGHD2dIdrmAByZIY62XpMAZFJc8Q
XMYrPYJYkPil9cGZVyeIt5UTQK5omC7u78O5D5BKoGNQipIzvY6slHII1TtKymfn
LmwjAqBhDQo8hZQ3KsTMbzhuIBH2yb4hbFCkZRIpK4fUfwRc6/r0NJzReX//ckDM
WrkegNOQJ/sEnc5cx4pSr+nrG+/CfSdTbpwKDrW98SLRJUWdGossyCUXZ87ATQRU
n9gqAQgAzgxfuEN514Zr06VWU4de4GMwkKjhynLck8KFoNFYnZllg5ZrQwV/IVod
X45tCkHs82GoHXYI5T53IKv6Mq4b6tnxBt53IeaqW/JPeL+ipYQvfkqCQMBaDC3w
hvJUFwEhyhb7dyySiYUt5Wji883OEDYVhuyka8IjnKeO246C/MfvS1NRJBmUdTjB
lmGiZqJBHD0zXISxIC+zDEbXWj5ofUdn/De3qm/5ijWQscrfPWt8sLmqS7WHuXUT
xJ6S9ND13fbjJcDG8rjHD+tAqLjBRqqingSE1k3fLz7M/gqYnLTWcE6GtuQghoKB
ptqT+XGrTHYx90g2Xn+TJKqubmU/6QARAQABwsBfBBgBAgAJBQJUn9gqAhsMAAoJ
ENliXl160Bd+KD0H+gMrsxbOtAyq5XVvLSj2cUpq0KDhCuYfsNVlEEU7ychOQhAs
6HAuvLOOoxpJbjGuMB8wQxmB9gqFgKl6ZxAuFIrwbZWbHrPdr3arTOZKlq0pGpk8
LIILVcqh7x1FvjkoiS5bhgNWpp9bFWkFACD/TxJP6u0I/Vc3LShgOd1FcOjQP7GG
nfiCIPearu/fBheJ67cmPZ4UIPWDP+gtghehaSSVJTTD15vc8dtHS3LgJv+c8FO8
aDW1fHPNvRIqq0QnSTGPPyz64he3w8VEGtwAKbRWaFlpLeE+UG4weFaT2siJ3hGU
XQhZLaUj4FWC5vB26DV3pWnUk3TrSUtB2qD8zE4=
=Efsj
-----END PGP PUBLIC KEY BLOCK-----
